X:2717
L:1/8
M:2/4
K:G
|: G,B,DG Bdgd | cAGE C2 ^E=E | DFAB cAFA | GABG D2 CA, :|2 GBAF"^fine" || | D G>E |: DEFG ABAF | 
 DFBF A2 FE | DEFG ABAF | DEFD E2 FE | DEFG ABAF | DFBF A2 Bc | dAFD BAFD |1 EDCE D2 FE :|2 
 EDCE D2 B,A, ||

